X:17
T:A orielles d'una fonte (CT 488)
C:Tradicional
S:Msica Tradicional Asturiana, (C) Tello & Tito. Asturies, 2001.
S:http://pagina.de/MusTradAst <telloytito@asturies.org>
N:Cancin de empleo indeterminado, transcrita en Uviu.
N:Esta cancin era muy corriente en Asturies hace unos veinte aos, y de ella conocemos versiones recogidas en Llen, Valladolid, Cartagena, Granada, Murcia, Isla de Rhodas y Sofa.
N:Las de estos dos ltimos puntos han sido transcritas entre los judos espaoles por D. Manuel Manrique de Lara.
A:Asturies
O:Uviu
Z:Cancioneru de Torner 488
M:3/8
L:1/8
Q:3/8=72
K:C
|GGG|G2 A|(A2 G)|F3|AAA|G2 F|E3-|E2 z :|
AAA|A2 A|A3|A2 z|ABc|B2 A|G3-|G2 z|
AAA|ABB|c2 G-|GAA|EGG|DFF|E3-|E2 ||
W:A orillas de una fuente
W:una zagala vi;
W:con el ruido del agua
W:yo me acerqu hacia all
W:y o una voz que deca:
W:ai, de m!ai, de m!ai, de m!
W:
W:La cog de la mano,
W:conmigo la llev
W:y en su divino rostro
W:tres vesos (sic) le estamp,
W:y entonces dijo la nia:
W:otros tres, otros tres y son seis.
W:
